X:1
T:My Sunshine
T:My Sunshine
T:Limes
C:Limes
%%score { 1 | 2 }
L:1/8
M:4/4
K:C
V:1 treble nm="Piano" snm="Pf."
V:2 bass 
V:1
!ppp!!<(! [^F^GB]3 ^c (3[=FGB^a]2 f2 ^g2 | !arpeggio![_G^f^a]3 =f/a/ e/a/ ^d3 | %2
 [^F^GB]3 ^c (3[=FGB^a]2 f2 ^g2 | !arpeggio![_G^f^a]3 =f/a/ e/a/ ^d3 | %4
 [^F^GB]3 ^c (3[=FGB^a]2 f2 ^g2 | !arpeggio![_G^f^a]3 =f/a/ e/a/ ^d3 | %6
 !arpeggio![F,B,^DF^GB^d^gb^d'^a']4 z/ [^F=d^f]2 z/ g | %7
 !arpeggio![_G^f^a]3!<)!!ff!!>(! =f/a/ e/a/ ^d3!>)!!mf! |!ff! [^F^GB]3 ^c (3[=FGB^a]2 f2 ^g2 | %9
 !arpeggio![_G^f^a]3!>(! =f/a/ e/a/ ^d3!>)!!mf! |!ff! [^F^GB]3 ^c (3[=FGB^a]2 f2 ^g2 | %11
 !arpeggio![_G^f^a]3!>(! =f/a/ e/a/ ^d3!>)!!mf! |!ff! [^F^GB]3 ^c (3[=FGB^a]2 f2 ^g2 | %13
 !arpeggio![_G^f^a]3!>(! =f/a/ e/a/ ^d3!>)!!mf! | %14
 !arpeggio![F,B,^DF^GB^d^gb^d'^a']4 z/ [^F=d^f]2 z/ g | %15
!ff! !arpeggio![_G^f^a]3!>(! =f/a/ e/a/ ^d3!>)!!mf! |!ff! [^F^GB]3 ^c (3[=FGB^a]2 f2 ^g2 | %17
 !arpeggio![_G^f^a]3!>(! =f/a/ e/a/ ^d3!>)!!mf! |!ff! [^F^GB]3 ^c (3[=FGB^a]2 f2 ^g2 | %19
 !arpeggio![_G^f^a]3!>(! =f/a/ e/a/ ^d3!>)!!mf! |!ff! [^F^GB]3 ^c (3[=FGB^a]2 f2 ^g2 | %21
 !arpeggio![_G^f^a]3!>(! =f/a/ e/a/ ^d3!>)!!mf! | %22
 !arpeggio![F,B,^DF^GB^d^gb^d'^a']4 z/ [^F=d^f]2 z/ g | %23
!ff! !arpeggio![_G^f^a]3!>(! =f/a/ e/a/ ^d3!>)!!mf! |!ff! [^F^GB]3 ^c (3[=FGB^a]2 f2 ^g2 | %25
!>(! !arpeggio![_G^f^a]3 =f/a/ e/a/ ^d3!>)!!mf! |!ff! [^F^GB]3 ^c (3[=FGB^a]2 f2 ^g2 | %27
 !arpeggio![^F^f^a] !arpeggio![Ffa]2!>(! =f/a/ e/a/ ^d3!>)!!mf! | %28
!ff! [^F^GB]3 ^c (3[=FGB^a]2 f2 ^g2 | !arpeggio![_G^f^a]3!>(! =f/a/ e/a/ ^d3!>)!!mf! | %30
 !arpeggio![F,B,^DF^GB^d^gb^d'^a']4 z/ [^F=d^f]2 z/ g | %31
!ff! !arpeggio![_G^f^a]3!>(! =f/a/ e/a/ ^d3!>)!!mf! |!ff! [^F^GB]3 ^c (3[=FGB^a]2 f2 ^g2 | %33
 !arpeggio![_G^f^a]3!>(! =f/a/ e/a/ ^d3!>)!!mf! |!ff! [^F^GB]3 ^c (3[=FGB^a]2 f2 ^g2 | %35
 !arpeggio![_G^f^a]3!>(! =f/a/ e/a/ ^d3!>)!!mf! |!ff! [^F^GB]3 ^c (3[=FGB^a]2 f2 ^g2 | %37
 !arpeggio![_G^f^a]3!>(! =f/a/ e/a/ ^d3!>)!!mf! | %38
 !arpeggio![F,B,^DF^GB^d^gb^d'^a']4 z/ [^F=d^f]2 z/ g |!f!!>(! !arpeggio![_G^f^a]3 =f/a/ e/a/ ^d3 | %40
 [^F^GB]3 ^c (3[=FGB^a]2 f2 ^g2 | !arpeggio![_G^f^a]3 =f/a/ e/a/ ^d3!>)!!ppp! |] %42
V:2
 ^G,,4 ^C,,4 | [^F,,,^F,,]4 ^C,,2 F,,2 | ^G,,4 ^C,,2 C,,2 | [^F,,,^F,,]4 ^C,,2 F,,2 | ^G,,4 ^C,,4 | %5
 [^F,,,^F,,]4 ^C,,2 F,,2 | z4 ^A,,4 | [^F,,^C,]4 ^C,,2 F,,2 | ^G,,4 ^C,,4 | %9
 [^F,,,^F,,]4 ^C,,2 F,,2 | ^G,,4 ^C,,4 | [^F,,,^F,,]4 ^C,,2 F,,2 | ^G,,4 ^C,,4 | %13
 [^F,,,^F,,]4 ^C,,2 F,,2 | z4 ^A,,4 | [^F,,^C,]4 ^C,,2 F,,2 | ^G,,4 ^C,,4 | %17
 [^F,,,^F,,]4 ^C,,2 F,,2 | ^G,,4 ^C,,4 | z4 ^C,,2 ^F,,2 | ^G,,4 ^C,,4 | [^F,,,^F,,]4 ^C,,2 F,,2 | %22
 z4 ^A,,4 | [^F,,^C,]4 ^C,,2 F,,2 | ^G,,4 ^C,,4 | [^F,,,^F,,]4 ^C,,2 F,,2 | ^G,,4 ^C,,4 | %27
 [^F,,,^F,,]4 ^C,,2 F,,2 | ^G,,4 ^C,,4 | [^F,,,^F,,]4 ^C,,2 F,,2 | z4 ^A,,4 | %31
 [^F,,^C,]4 ^C,,2 F,,2 | ^G,,4 ^C,,4 | [^F,,,^F,,]4 ^C,,2 F,,2 | ^G,,4 ^C,,4 | %35
 [^F,,,^F,,]4 ^C,,2 F,,2 | ^G,,4 ^C,,4 | [^F,,,^F,,]4 ^C,,2 F,,2 | z4 ^A,,4 | %39
 [^F,,^C,]4 ^C,,2 F,,2 | ^G,,4 ^C,,4 | [^F,,,^F,,]4 ^C,,2 F,,2 |] %42

